bernoullicharts/1_1_x_alt_series__bits.svg

<?xml version="1.0" encoding="utf-8" standalone="no"?>
<!DOCTYPE svg PUBLIC "-//W3C//DTD SVG 1.1//EN"
  "http://www.w3.org/Graphics/SVG/1.1/DTD/svg11.dtd">
<!-- Created with matplotlib (https://matplotlib.org/) -->
<svg height="345.6pt" version="1.1" viewBox="0 0 460.8 345.6" width="460.8pt" xmlns="http://www.w3.org/2000/svg" xmlns:xlink="http://www.w3.org/1999/xlink">
 <defs>
  <style type="text/css">
*{stroke-linecap:butt;stroke-linejoin:round;}
  </style>
 </defs>
 <g id="figure_1">
  <g id="patch_1">
   <path d="M 0 345.6 
L 460.8 345.6 
L 460.8 0 
L 0 0 
z
" style="fill:#ffffff;"/>
  </g>
  <g id="axes_1">
   <g id="patch_2">
    <path d="M 57.6 307.584 
L 414.72 307.584 
L 414.72 41.472 
L 57.6 41.472 
z
" style="fill:#ffffff;"/>
   </g>
   <g id="matplotlib.axis_1">
    <g id="xtick_1">
     <g id="line2d_1">
      <defs>
       <path d="M 0 0 
L 0 3.5 
" id="m9846c58a79" style="stroke:#000000;stroke-width:0.8;"/>
      </defs>
      <g>
       <use style="stroke:#000000;stroke-width:0.8;" x="73.799924" xlink:href="#m9846c58a79" y="307.584"/>
      </g>
     </g>
     <g id="text_1">
      <text style="font-family:DejaVu Sans;font-size:10px;font-style:normal;font-weight:normal;text-anchor:middle;" transform="rotate(-0, 73.799924, 322.182437)" x="73.799924" y="322.182437">0.0</text>
     </g>
    </g>
    <g id="xtick_2">
     <g id="line2d_2">
      <g>
       <use style="stroke:#000000;stroke-width:0.8;" x="139.406515" xlink:href="#m9846c58a79" y="307.584"/>
      </g>
     </g>
     <g id="text_2">
      <text style="font-family:DejaVu Sans;font-size:10px;font-style:normal;font-weight:normal;text-anchor:middle;" transform="rotate(-0, 139.406515, 322.182437)" x="139.406515" y="322.182437">0.2</text>
     </g>
    </g>
    <g id="xtick_3">
     <g id="line2d_3">
      <g>
       <use style="stroke:#000000;stroke-width:0.8;" x="205.013105" xlink:href="#m9846c58a79" y="307.584"/>
      </g>
     </g>
     <g id="text_3">
      <text style="font-family:DejaVu Sans;font-size:10px;font-style:normal;font-weight:normal;text-anchor:middle;" transform="rotate(-0, 205.013105, 322.182437)" x="205.013105" y="322.182437">0.4</text>
     </g>
    </g>
    <g id="xtick_4">
     <g id="line2d_4">
      <g>
       <use style="stroke:#000000;stroke-width:0.8;" x="270.619696" xlink:href="#m9846c58a79" y="307.584"/>
      </g>
     </g>
     <g id="text_4">
      <text style="font-family:DejaVu Sans;font-size:10px;font-style:normal;font-weight:normal;text-anchor:middle;" transform="rotate(-0, 270.619696, 322.182437)" x="270.619696" y="322.182437">0.6</text>
     </g>
    </g>
    <g id="xtick_5">
     <g id="line2d_5">
      <g>
       <use style="stroke:#000000;stroke-width:0.8;" x="336.226287" xlink:href="#m9846c58a79" y="307.584"/>
      </g>
     </g>
     <g id="text_5">
      <text style="font-family:DejaVu Sans;font-size:10px;font-style:normal;font-weight:normal;text-anchor:middle;" transform="rotate(-0, 336.226287, 322.182437)" x="336.226287" y="322.182437">0.8</text>
     </g>
    </g>
    <g id="xtick_6">
     <g id="line2d_6">
      <g>
       <use style="stroke:#000000;stroke-width:0.8;" x="401.832878" xlink:href="#m9846c58a79" y="307.584"/>
      </g>
     </g>
     <g id="text_6">
      <text style="font-family:DejaVu Sans;font-size:10px;font-style:normal;font-weight:normal;text-anchor:middle;" transform="rotate(-0, 401.832878, 322.182437)" x="401.832878" y="322.182437">1.0</text>
     </g>
    </g>
    <g id="text_7">
     <text style="font-family:DejaVu Sans;font-size:10px;font-style:normal;font-weight:normal;text-anchor:middle;" transform="rotate(-0, 236.16, 335.860562)" x="236.16" y="335.860562">Probability</text>
    </g>
   </g>
   <g id="matplotlib.axis_2">
    <g id="ytick_1">
     <g id="line2d_7">
      <defs>
       <path d="M 0 0 
L -3.5 0 
" id="m731a44001a" style="stroke:#000000;stroke-width:0.8;"/>
      </defs>
      <g>
       <use style="stroke:#000000;stroke-width:0.8;" x="57.6" xlink:href="#m731a44001a" y="297.611136"/>
      </g>
     </g>
     <g id="text_8">
      <text style="font-family:DejaVu Sans;font-size:10px;font-style:normal;font-weight:normal;text-anchor:end;" transform="rotate(-0, 50.6, 301.410354)" x="50.6" y="301.410354">0</text>
     </g>
    </g>
    <g id="ytick_2">
     <g id="line2d_8">
      <g>
       <use style="stroke:#000000;stroke-width:0.8;" x="57.6" xlink:href="#m731a44001a" y="242.205718"/>
      </g>
     </g>
     <g id="text_9">
      <text style="font-family:DejaVu Sans;font-size:10px;font-style:normal;font-weight:normal;text-anchor:end;" transform="rotate(-0, 50.6, 246.004937)" x="50.6" y="246.004937">50</text>
     </g>
    </g>
    <g id="ytick_3">
     <g id="line2d_9">
      <g>
       <use style="stroke:#000000;stroke-width:0.8;" x="57.6" xlink:href="#m731a44001a" y="186.8003"/>
      </g>
     </g>
     <g id="text_10">
      <text style="font-family:DejaVu Sans;font-size:10px;font-style:normal;font-weight:normal;text-anchor:end;" transform="rotate(-0, 50.6, 190.599519)" x="50.6" y="190.599519">100</text>
     </g>
    </g>
    <g id="ytick_4">
     <g id="line2d_10">
      <g>
       <use style="stroke:#000000;stroke-width:0.8;" x="57.6" xlink:href="#m731a44001a" y="131.394882"/>
      </g>
     </g>
     <g id="text_11">
      <text style="font-family:DejaVu Sans;font-size:10px;font-style:normal;font-weight:normal;text-anchor:end;" transform="rotate(-0, 50.6, 135.194101)" x="50.6" y="135.194101">150</text>
     </g>
    </g>
    <g id="ytick_5">
     <g id="line2d_11">
      <g>
       <use style="stroke:#000000;stroke-width:0.8;" x="57.6" xlink:href="#m731a44001a" y="75.989464"/>
      </g>
     </g>
     <g id="text_12">
      <text style="font-family:DejaVu Sans;font-size:10px;font-style:normal;font-weight:normal;text-anchor:end;" transform="rotate(-0, 50.6, 79.788683)" x="50.6" y="79.788683">200</text>
     </g>
    </g>
    <g id="text_13">
     <text style="font-family:DejaVu Sans;font-size:10px;font-style:normal;font-weight:normal;text-anchor:middle;" transform="rotate(-90, 25.432812, 174.528)" x="25.432812" y="174.528">Average Bits Consumed Per Call</text>
    </g>
   </g>
   <g id="line2d_12">
    <path clip-path="url(#pb270cdb00e)" d="M 73.832727 295.355027 
L 77.145529 295.488 
L 80.45833 295.332865 
L 83.771132 295.390486 
L 87.083933 295.213189 
L 90.396735 295.261946 
L 93.709536 295.38827 
L 97.022338 295.30627 
L 100.335139 295.268595 
L 103.647941 295.09573 
L 106.960742 294.93173 
L 110.273544 295.188811 
L 113.586345 295.168865 
L 116.899147 295.078 
L 120.211948 295.022594 
L 123.52475 295.093513 
L 126.837551 294.909567 
L 130.150353 294.887405 
L 133.463154 294.851946 
L 136.775955 294.905135 
L 140.088757 294.716757 
L 143.401558 294.816486 
L 146.71436 294.81427 
L 150.027161 294.68573 
L 153.339963 294.725621 
L 156.652764 294.552757 
L 159.965566 294.65027 
L 163.278367 294.379892 
L 166.591169 294.652486 
L 169.90397 294.56827 
L 173.216772 294.466324 
L 176.529573 294.541675 
L 179.842375 294.144973 
L 183.155176 294.335567 
L 186.467978 294.335567 
L 189.780779 293.961027 
L 193.093581 294.005351 
L 196.406382 294.224756 
L 199.719184 293.883459 
L 203.031985 293.819189 
L 206.344787 293.903405 
L 209.657588 293.898973 
L 212.97039 293.599783 
L 216.283191 293.58427 
L 219.595993 293.508918 
L 222.908794 293.231891 
L 226.221596 293.790378 
L 229.534397 293.411405 
L 232.847199 293.043513 
L 236.16 293.639675 
L 239.472801 293.191999 
L 242.785603 293.094486 
L 246.098404 292.970378 
L 249.411206 292.688918 
L 252.724007 292.824108 
L 256.036809 292.733243 
L 259.34961 292.535999 
L 262.662412 292.378648 
L 265.975213 292.303297 
L 269.288015 292.265621 
L 272.600816 292.358702 
L 275.913618 291.946486 
L 279.226419 291.84454 
L 282.539221 291.904378 
L 285.852022 291.443405 
L 289.164824 291.257242 
L 292.477625 290.716485 
L 295.790427 290.802918 
L 299.103228 290.23335 
L 302.41603 289.949674 
L 305.728831 290.275458 
L 309.041633 289.344647 
L 312.354434 289.21389 
L 315.667236 289.240485 
L 318.980037 288.637674 
L 322.292839 288.644323 
L 325.60564 288.316323 
L 328.918442 287.485241 
L 332.231243 287.39216 
L 335.544045 286.228647 
L 338.856846 286.299566 
L 342.169647 285.3067 
L 345.482449 284.593079 
L 348.79525 284.460106 
L 352.108052 282.560808 
L 355.420853 282.299294 
L 358.733655 280.23378 
L 362.046456 279.710753 
L 365.359258 278.855294 
L 368.672059 276.011888 
L 371.984861 272.598914 
L 375.297662 269.228048 
L 378.610464 264.454317 
L 381.923265 259.691668 
L 385.236067 254.323991 
L 388.548868 240.73415 
L 391.86167 223.199443 
L 395.174471 192.706518 
L 398.487273 53.568 
" style="fill:none;stroke:#1f77b4;stroke-linecap:square;stroke-width:1.5;"/>
   </g>
   <g id="patch_3">
    <path d="M 57.6 307.584 
L 57.6 41.472 
" style="fill:none;stroke:#000000;stroke-linecap:square;stroke-linejoin:miter;stroke-width:0.8;"/>
   </g>
   <g id="patch_4">
    <path d="M 414.72 307.584 
L 414.72 41.472 
" style="fill:none;stroke:#000000;stroke-linecap:square;stroke-linejoin:miter;stroke-width:0.8;"/>
   </g>
   <g id="patch_5">
    <path d="M 57.6 307.584 
L 414.72 307.584 
" style="fill:none;stroke:#000000;stroke-linecap:square;stroke-linejoin:miter;stroke-width:0.8;"/>
   </g>
   <g id="patch_6">
    <path d="M 57.6 41.472 
L 414.72 41.472 
" style="fill:none;stroke:#000000;stroke-linecap:square;stroke-linejoin:miter;stroke-width:0.8;"/>
   </g>
   <g id="text_14">
    <text style="font-family:DejaVu Sans;font-size:12px;font-style:normal;font-weight:normal;text-anchor:middle;" transform="rotate(-0, 236.16, 35.472)" x="236.16" y="35.472">Avg. Bits Consumed by 1/(1+x) (Alt. Series) Algorithm</text>
   </g>
   <g id="legend_1">
    <g id="patch_7">
     <path d="M 64.6 64.150125 
L 196.425 64.150125 
Q 198.425 64.150125 198.425 62.150125 
L 198.425 48.472 
Q 198.425 46.472 196.425 46.472 
L 64.6 46.472 
Q 62.6 46.472 62.6 48.472 
L 62.6 62.150125 
Q 62.6 64.150125 64.6 64.150125 
z
" style="fill:#ffffff;opacity:0.8;stroke:#cccccc;stroke-linejoin:miter;"/>
    </g>
    <g id="line2d_13">
     <path d="M 66.6 54.570438 
L 86.6 54.570438 
" style="fill:none;stroke:#1f77b4;stroke-linecap:square;stroke-width:1.5;"/>
    </g>
    <g id="line2d_14"/>
    <g id="text_15">
     <text style="font-family:DejaVu Sans;font-size:10px;font-style:normal;font-weight:normal;text-anchor:start;" transform="rotate(-0, 94.6, 58.070438)" x="94.6" y="58.070438">1/(1+x) (Alt. Series)</text>
    </g>
   </g>
  </g>
 </g>
 <defs>
  <clipPath id="pb270cdb00e">
   <rect height="266.112" width="357.12" x="57.6" y="41.472"/>
  </clipPath>
 </defs>
</svg>

<svg height="460.8" viewBox="0 0 460.8 345.6" width="614.4" xmlns="http://www.w3.org/2000/svg" xmlns:xlink="http://www.w3.org/1999/xlink"><defs><style>*{stroke-linecap:butt;stroke-linejoin:round}</style></defs><g id="figure_1"><path d="M0 345.6h460.8V0H0z" fill="#fff" id="patch_1"/><g id="axes_1"><path d="M57.6 307.584h357.12V41.472H57.6z" fill="#fff" id="patch_2"/><g id="matplotlib.axis_1"><g id="xtick_1"><g id="line2d_1"><defs><path d="M0 0v3.5" id="m9846c58a79" stroke="#000" stroke-width=".8"/></defs><use x="73.8" xlink:href="#m9846c58a79" y="307.584" stroke="#000" stroke-width=".8"/></g><text x="73.8" y="322.182" font-family="DejaVu Sans" font-size="10" font-weight="400" text-anchor="middle" id="text_1">0.0</text></g><g id="xtick_2"><use x="139.407" xlink:href="#m9846c58a79" y="307.584" stroke="#000" stroke-width=".8" id="line2d_2"/><text x="139.407" y="322.182" font-family="DejaVu Sans" font-size="10" font-weight="400" text-anchor="middle" id="text_2">0.2</text></g><g id="xtick_3"><use x="205.013" xlink:href="#m9846c58a79" y="307.584" stroke="#000" stroke-width=".8" id="line2d_3"/><text x="205.013" y="322.182" font-family="DejaVu Sans" font-size="10" font-weight="400" text-anchor="middle" id="text_3">0.4</text></g><g id="xtick_4"><use x="270.62" xlink:href="#m9846c58a79" y="307.584" stroke="#000" stroke-width=".8" id="line2d_4"/><text x="270.62" y="322.182" font-family="DejaVu Sans" font-size="10" font-weight="400" text-anchor="middle" id="text_4">0.6</text></g><g id="xtick_5"><use x="336.226" xlink:href="#m9846c58a79" y="307.584" stroke="#000" stroke-width=".8" id="line2d_5"/><text x="336.226" y="322.182" font-family="DejaVu Sans" font-size="10" font-weight="400" text-anchor="middle" id="text_5">0.8</text></g><g id="xtick_6"><use x="401.833" xlink:href="#m9846c58a79" y="307.584" stroke="#000" stroke-width=".8" id="line2d_6"/><text x="401.833" y="322.182" font-family="DejaVu Sans" font-size="10" font-weight="400" text-anchor="middle" id="text_6">1.0</text></g><text x="236.16" y="335.861" font-family="DejaVu Sans" font-size="10" font-weight="400" text-anchor="middle" id="text_7">Probability</text></g><g id="matplotlib.axis_2"><g id="ytick_1"><g id="line2d_7"><defs><path d="M0 0h-3.5" id="m731a44001a" stroke="#000" stroke-width=".8"/></defs><use x="57.6" xlink:href="#m731a44001a" y="297.611" stroke="#000" stroke-width=".8"/></g><text x="50.6" y="301.41" font-family="DejaVu Sans" font-size="10" font-weight="400" text-anchor="end" id="text_8">0</text></g><g id="ytick_2"><use x="57.6" xlink:href="#m731a44001a" y="242.206" stroke="#000" stroke-width=".8" id="line2d_8"/><text x="50.6" y="246.005" font-family="DejaVu Sans" font-size="10" font-weight="400" text-anchor="end" id="text_9">50</text></g><g id="ytick_3"><use x="57.6" xlink:href="#m731a44001a" y="186.8" stroke="#000" stroke-width=".8" id="line2d_9"/><text x="50.6" y="190.6" font-family="DejaVu Sans" font-size="10" font-weight="400" text-anchor="end" id="text_10">100</text></g><g id="ytick_4"><use x="57.6" xlink:href="#m731a44001a" y="131.395" stroke="#000" stroke-width=".8" id="line2d_10"/><text x="50.6" y="135.194" font-family="DejaVu Sans" font-size="10" font-weight="400" text-anchor="end" id="text_11">150</text></g><g id="ytick_5"><use x="57.6" xlink:href="#m731a44001a" y="75.989" stroke="#000" stroke-width=".8" id="line2d_11"/><text x="50.6" y="79.789" font-family="DejaVu Sans" font-size="10" font-weight="400" text-anchor="end" id="text_12">200</text></g><text transform="rotate(-90 25.433 174.528)" x="25.433" y="174.528" font-family="DejaVu Sans" font-size="10" font-weight="400" text-anchor="middle" id="text_13">Average Bits Consumed Per Call</text></g><path clip-path="url(#pb270cdb00e)" d="M73.833 295.355l3.313.133 3.312-.155 3.313.057 3.313-.177 3.313.049 3.313.126 3.312-.082 3.313-.037 3.313-.173 3.313-.164 3.313.257 3.312-.02 3.313-.091 3.313-.055 3.313.07 3.313-.183 3.312-.023 3.313-.035 3.313.053 3.313-.188 3.313.1 3.312-.003 3.313-.128 3.313.04 3.313-.173 3.313.097 3.312-.27 3.313.272 3.313-.084 3.313-.102 3.313.076 3.312-.397 3.313.19h3.313l3.313-.374 3.313.044 3.312.22 3.313-.342 3.313-.064 3.313.084 3.313-.004 3.312-.3 3.313-.015 3.313-.075 3.313-.277 3.313.558 3.312-.379 3.313-.367 3.313.596 3.313-.448 3.313-.098 3.312-.124 3.313-.281 3.313.135 3.313-.09 3.313-.198 3.312-.157 3.313-.076 3.313-.037 3.313.093 3.313-.413 3.312-.101 3.313.06 3.313-.462 3.313-.186 3.313-.54 3.312.086 3.313-.57 3.313-.283 3.313.325 3.313-.93 3.312-.131 3.313.026 3.313-.602 3.313.006 3.313-.328 3.312-.83 3.313-.094 3.313-1.163 3.313.07 3.313-.992 3.312-.714 3.313-.133 3.313-1.9 3.313-.26 3.313-2.066 3.312-.523 3.313-.856 3.313-2.843 3.313-3.413 3.313-3.371 3.312-4.774 3.313-4.762 3.313-5.368 3.313-13.59 3.313-17.535 3.312-30.492 3.313-139.139" fill="none" stroke="#1f77b4" stroke-linecap="square" stroke-width="1.5" id="line2d_12"/><path d="M57.6 307.584V41.472" fill="none" stroke="#000" stroke-linecap="square" stroke-width=".8" id="patch_3"/><path d="M414.72 307.584V41.472" fill="none" stroke="#000" stroke-linecap="square" stroke-width=".8" id="patch_4"/><path d="M57.6 307.584h357.12" fill="none" stroke="#000" stroke-linecap="square" stroke-width=".8" id="patch_5"/><path d="M57.6 41.472h357.12" fill="none" stroke="#000" stroke-linecap="square" stroke-width=".8" id="patch_6"/><text x="236.16" y="35.472" font-family="DejaVu Sans" font-size="12" font-weight="400" text-anchor="middle" id="text_14">Avg. Bits Consumed by 1/(1+x) (Alt. Series) Algorithm</text><g id="legend_1"><path d="M64.6 64.15h131.825q2 0 2-2V48.472q0-2-2-2H64.6q-2 0-2 2V62.15q0 2 2 2z" fill="#fff" opacity=".8" stroke="#ccc" id="patch_7"/><path d="M66.6 54.57h20" fill="none" stroke="#1f77b4" stroke-linecap="square" stroke-width="1.5" id="line2d_13"/><text x="94.6" y="58.07" font-family="DejaVu Sans" font-size="10" font-weight="400" id="text_15">1/(1+x) (Alt. Series)</text></g></g></g><defs><clipPath id="pb270cdb00e"><path d="M57.6 41.472h357.12v266.112H57.6z"/></clipPath></defs></svg>
